images/basketball_theme_light.svg

<svg width="50" height="50" viewBox="0 0 50 50" fill="none" xmlns="http://www.w3.org/2000/svg">
<path d="M19.5562 15.4503C22.9048 12.3798 26.7912 7.82545 28.1928 5.32937C29.5944 2.83329 31.0981 0.791126 31.5338 0.791126C31.9686 0.791126 34.2128 1.75239 36.5187 2.92662C38.8254 4.10085 40.7124 5.5381 40.7124 6.12097C40.7124 6.70299 35.9606 11.9429 30.1533 17.7648C21.1604 26.7794 19.3755 28.2115 18.1217 27.4191C17.312 26.9075 15.9341 25.2615 15.0594 23.7615L13.4687 21.0338L19.5562 15.4503Z" fill="#0086FF"/>
<path d="M0 26.5231L4.52472 24.7813C7.01379 23.8234 9.29939 22.9971 9.60419 22.9453C9.90899 22.8927 11.5588 24.8084 13.2694 27.2019L16.3807 31.5535L11.4693 36.5414C8.76746 39.2843 6.20832 41.4122 5.78278 41.2697C5.35724 41.1271 4.07892 39.2258 2.94162 37.0445C1.80516 34.864 0.677983 31.6044 0.437351 29.8014L0 26.5231Z" fill="#0086FF"/>
<path d="M37.8367 32.2441C40.4988 29.3543 44.0391 26.2669 45.7049 25.382C47.3708 24.4979 49.0189 23.7573 49.3668 23.736C49.7146 23.7157 50 24.7745 50 26.0896C50 27.4055 49.4292 30.364 48.7318 32.6649C48.0336 34.9667 46.7992 37.7046 45.9878 38.7498C44.6082 40.5256 44.1851 40.5969 39.5084 39.8307C36.7559 39.3794 34.1656 38.6701 33.751 38.2535C33.3094 37.8098 34.9989 35.3239 37.8367 32.2441Z" fill="#0086FF"/>
<path d="M28.0476 48.7562C28.0476 48.0724 28.6876 46.1634 29.4703 44.5141C30.253 42.8647 30.9183 41.5318 30.9478 41.5513C30.9782 41.5717 32.9649 42.0485 35.3628 42.6119C37.7615 43.1761 39.8225 44.0186 39.9433 44.4852C40.064 44.9518 38.1288 46.384 35.6431 47.6668C33.1566 48.9496 30.4303 50 29.5851 50C28.7391 50 28.0476 49.44 28.0476 48.7562Z" fill="#0086FF"/>
<path d="M17.0714 1.27303C14.9817 1.93904 12.3854 3.17946 11.3013 4.02874C9.42096 5.50161 9.37284 5.80365 10.2484 10.5667C10.7542 13.3131 11.5183 15.9127 11.9463 16.3428C12.4217 16.8205 14.6 15.3502 17.5425 12.5639C20.192 10.0551 23.2594 6.57825 24.3596 4.83812C25.4589 3.09715 26.3589 1.28405 26.3589 0.808086C26.3589 0.332117 25.1237 -0.0309951 23.6149 0.00209366C22.1061 0.034334 19.1611 0.606163 17.0714 1.27303Z" fill="#0069B7"/>
<path d="M4.53401 10.3945C4.03417 10.9994 2.85972 13.1901 1.92337 15.2636C0.987858 17.3363 0.213612 19.7009 0.20348 20.5171C0.193348 21.3333 0.742158 22.0018 1.42268 22.0018C2.10321 22.0018 4.01476 21.3528 5.66964 20.5595C7.58456 19.6424 8.51585 18.6896 8.22962 17.9404C7.98224 17.2931 7.5415 15.2611 7.24852 13.4242C6.95638 11.5882 6.43037 9.90835 6.07997 9.69031C5.72958 9.47226 5.03301 9.78872 4.53401 10.3945Z" fill="#0069B7"/>
<path d="M32.7083 19.9054C23.4004 28.925 21.8874 30.7466 22.6659 31.9912C23.1699 32.7964 24.7632 34.1505 26.207 35.0006L28.8311 36.5456L35.8272 29.3823C40.2312 24.8721 43.996 21.8008 45.9895 21.0915C47.7313 20.4713 49.1557 19.4557 49.1557 18.8338C49.1557 18.2119 48.1991 15.8066 47.0305 13.4896C45.862 11.1717 44.6267 9.27712 44.2865 9.27966C43.9462 9.28221 38.7359 14.0639 32.7083 19.9054Z" fill="#0069B7"/>
<path d="M13.2719 39.0205L8.20598 44.111L10.3168 45.7579C11.4777 46.664 14.1103 47.9892 16.1663 48.7028C18.223 49.4163 20.7341 50 21.7464 50C23.2155 50 23.9526 49.0133 25.3947 45.1215L27.2024 40.2431L25.3035 38.7948C24.2583 37.9981 22.394 36.5668 21.1596 35.6132C19.9252 34.6596 18.7854 33.8909 18.6266 33.9053C18.4679 33.9189 16.0582 36.2207 13.2719 39.0205Z" fill="#0069B7"/>
</svg>

<svg width="50" height="50" fill="none" xmlns="http://www.w3.org/2000/svg"><path d="M19.556 15.45c3.349-3.07 7.235-7.625 8.637-10.12 1.401-2.498 2.905-4.54 3.34-4.54.436 0 2.68.961 4.986 2.136 2.306 1.174 4.193 2.611 4.193 3.194 0 .582-4.751 5.822-10.559 11.644-8.993 9.014-10.777 10.447-12.031 9.654-.81-.512-2.188-2.157-3.063-3.657l-1.59-2.728 6.087-5.584ZM0 26.523l4.525-1.742c2.489-.958 4.774-1.784 5.08-1.836.304-.052 1.954 1.863 3.664 4.257l3.112 4.351-4.912 4.988c-2.702 2.743-5.26 4.871-5.686 4.729-.426-.143-1.704-2.044-2.841-4.226-1.137-2.18-2.264-5.44-2.505-7.243L0 26.523Zm37.837 5.721c2.662-2.89 6.202-5.977 7.868-6.862 1.666-.884 3.314-1.625 3.662-1.646.348-.02.633 1.038.633 2.354s-.57 4.274-1.268 6.575c-.698 2.302-1.933 5.04-2.744 6.085-1.38 1.776-1.803 1.847-6.48 1.08-2.752-.45-5.342-1.16-5.757-1.576-.442-.444 1.248-2.93 4.086-6.01Zm-9.789 16.512c0-.684.64-2.593 1.422-4.242.783-1.65 1.448-2.982 1.478-2.963.03.02 2.017.497 4.415 1.06 2.398.565 4.46 1.408 4.58 1.874.121.467-1.814 1.899-4.3 3.182C33.157 48.95 30.43 50 29.585 50c-.846 0-1.537-.56-1.537-1.244Z" fill="#0086FF"/><path d="M17.071 1.273c-2.09.666-4.686 1.906-5.77 2.756-1.88 1.473-1.928 1.775-1.053 6.538.506 2.746 1.27 5.346 1.698 5.776.476.477 2.654-.993 5.597-3.78 2.649-2.508 5.716-5.985 6.817-7.725 1.099-1.74 1.999-3.554 1.999-4.03 0-.476-1.235-.839-2.744-.806-1.509.032-4.454.604-6.544 1.271ZM4.534 10.395c-.5.604-1.674 2.795-2.61 4.869C.987 17.336.213 19.7.203 20.517c-.01.816.538 1.485 1.219 1.485.68 0 2.592-.65 4.247-1.442 1.915-.918 2.846-1.87 2.56-2.62-.248-.647-.689-2.679-.981-4.516-.293-1.836-.819-3.516-1.169-3.734-.35-.218-1.047.099-1.546.705Zm28.174 9.51c-9.308 9.02-10.82 10.842-10.042 12.086.504.805 2.097 2.16 3.541 3.01l2.624 1.545 6.996-7.164c4.404-4.51 8.169-7.581 10.163-8.29 1.741-.62 3.166-1.636 3.166-2.258 0-.622-.957-3.027-2.125-5.344-1.169-2.318-2.404-4.213-2.745-4.21-.34.002-5.55 4.784-11.578 10.625ZM13.272 39.02l-5.066 5.091 2.11 1.647c1.162.906 3.794 2.231 5.85 2.945 2.057.713 4.568 1.297 5.58 1.297 1.47 0 2.207-.987 3.649-4.879l1.807-4.878-1.899-1.448a984.536 984.536 0 0 1-4.143-3.182c-1.235-.953-2.375-1.722-2.533-1.708-.16.014-2.569 2.316-5.355 5.115Z" fill="#0069B7"/></svg>
